X: 22953
T: Lasher, The
R: reel
M: 4/4
K: Aminor
ABga ABef|ABcd BGAB|gaAB efAB|cBGB ABde|
gaAB efAB|cdAc BGAB|gaAB efAB|cBGB ABde||
|:gaAB efAB|cdAc BGAB|gaAB efAB|cBGB ABde:|
|:aaga aegg|eede egge|aaga aegg|e2 g2 egge|
azga aegg|eede egec|ddce ecdd|dc e2 dege:|
|:azag abg{d}-e-|e2 ed egec|eddc dedd|dcAG ABcA|
[1 d_edc d=edd|dcAG ABcA|cddc dedd|dcAG ABde:|
[2 ddce- ecdd|dcec dc (3ABc|ddce- ecdd|dc e2 dege||
|:gaAB efAB|cdAc BGAB|gaAB efAB|cBGB ABde:|
|:gaAB dega|ABcd BGAB|dega efAB|cBGB ABde:|
|:aaga aegg|eede egge|aaga aegg|e2 g2 egge|
azga aegg|eede egec|ddce ecdd|dc e2 dege:|
|:azag abg{d}-e-|e2 ed egec|eddc dedd|dcAG ABcA|
[1 eddc dedd|dcAG ABcA|cddc dedd|dcAG ABde:|
[2 ddce- ecdd|dcec dc (3ABc|ddce- ecdd|dc e2 dege||
"dnd" az3 z4||

